Newaita-dark/.LP/16/battery-full.svg.svg

<svg xmlns="http://www.w3.org/2000/svg" xmlns:xlink="http://www.w3.org/1999/xlink" width="16px" height="16px" viewBox="0 0 16 16" version="1.1">
<g id="surface1">
<path style=" stroke:none;fill-rule:nonzero;fill:rgb(25.882354%,25.882354%,25.882354%);fill-opacity:1;" d="M 1.324219 4.09375 L 1.324219 12.03125 L 13.5625 12.03125 L 13.5625 10.378906 L 13.890625 10.378906 C 14.257812 10.378906 14.554688 10.082031 14.554688 9.71875 L 14.554688 6.410156 C 14.554688 6.042969 14.257812 5.75 13.890625 5.75 L 13.5625 5.75 L 13.5625 4.09375 Z M 2.644531 5.085938 L 12.238281 5.085938 L 12.238281 11.039062 L 2.644531 11.039062 Z M 2.644531 5.085938 "/>
<path style=" stroke:none;fill-rule:nonzero;fill:rgb(25.882354%,25.882354%,25.882354%);fill-opacity:1;" d="M 2.976562 5.417969 L 2.976562 10.710938 L 4.960938 10.710938 L 4.960938 5.417969 Z M 2.976562 5.417969 "/>
<path style=" stroke:none;fill-rule:nonzero;fill:rgb(25.882354%,25.882354%,25.882354%);fill-opacity:1;" d="M 9.921875 5.417969 L 9.921875 10.710938 L 11.90625 10.710938 L 11.90625 5.417969 Z M 9.921875 5.417969 "/>
<path style=" stroke:none;fill-rule:nonzero;fill:rgb(25.882354%,25.882354%,25.882354%);fill-opacity:1;" d="M 7.609375 5.417969 L 7.609375 10.710938 L 9.59375 10.710938 L 9.59375 5.417969 Z M 7.609375 5.417969 "/>
<path style=" stroke:none;fill-rule:nonzero;fill:rgb(25.882354%,25.882354%,25.882354%);fill-opacity:1;" d="M 5.292969 5.417969 L 5.292969 10.710938 L 7.277344 10.710938 L 7.277344 5.417969 Z M 5.292969 5.417969 "/>
</g>
</svg>

<svg xmlns="http://www.w3.org/2000/svg" width="16" height="16"><g fill="#424242"><path d="M1.324 4.094v7.937h12.239V10.38h.328a.663.663 0 0 0 .664-.66V6.41a.66.66 0 0 0-.664-.66h-.329V4.094zm1.32.992h9.594v5.953H2.645zm0 0"/><path d="M2.977 5.418v5.293H4.96V5.418zm0 0M9.922 5.418v5.293h1.984V5.418zm0 0M7.61 5.418v5.293h1.984V5.418zm0 0M5.293 5.418v5.293h1.984V5.418zm0 0"/></g></svg>
